CometChat/components/MessageComposer/resources/images_upload_icon.svg

<?xml version="1.0" encoding="UTF-8"?>
<svg width="24px" height="24px" viewBox="0 0 24 24" version="1.1" xmlns="http://www.w3.org/2000/svg" xmlns:xlink="http://www.w3.org/1999/xlink">
    <title>images_upload_icon</title>
    <g id="Page-1" stroke="none" stroke-width="1" fill="none" fill-rule="evenodd">
        <g id="images_upload_icon">
            <polygon id="Path" points="0 0 24 0 24 24 0 24"></polygon>
            <path d="M19,5 L19,19 L5,19 L5,5 L19,5 M19,3 L5,3 C3.9,3 3,3.9 3,5 L3,19 C3,20.1 3.9,21 5,21 L19,21 C20.1,21 21,20.1 21,19 L21,5 C21,3.9 20.1,3 19,3 Z M14.14,11.86 L11.14,15.73 L9,13.14 L6,17 L18,17 L14.14,11.86 Z" id="Shape" fill="#A5A5A5" fill-rule="nonzero"></path>
        </g>
    </g>
</svg>

<svg xmlns="http://www.w3.org/2000/svg" height="24" viewBox="0 0 24 24" width="24"><path d="M0 0h24v24H0V0z" fill="none"/><path d="M19 5v14H5V5h14m0-2H5c-1.1 0-2 .9-2 2v14c0 1.1.9 2 2 2h14c1.1 0 2-.9 2-2V5c0-1.1-.9-2-2-2zm-4.86 8.86l-3 3.87L9 13.14 6 17h12l-3.86-5.14z"/></svg>
